assets/src/images/icons/ic_microphone.svg

<svg width="86" height="106" viewBox="0 0 86 106" fill="none" xmlns="http://www.w3.org/2000/svg">
<g filter="url(#filter0_d)">
<path d="M54.8968 52.2068C54.459 52.2068 54.1037 52.5613 54.1037 52.9999V57.7585C54.1037 63.8813 49.123 68.862 43.0002 68.862C36.8774 68.862 31.8968 63.8813 31.8968 57.7585V52.9999C31.8968 52.5613 31.5414 52.2068 31.1037 52.2068C30.6659 52.2068 30.3105 52.5613 30.3105 52.9999V57.7585C30.3105 64.488 35.5799 69.9953 42.2071 70.4077V74.4137H38.2416C37.8038 74.4137 37.4485 74.7682 37.4485 75.2068C37.4485 75.6454 37.8038 75.9999 38.2416 75.9999H47.7588C48.1966 75.9999 48.5519 75.6454 48.5519 75.2068C48.5519 74.7682 48.1966 74.4137 47.7588 74.4137H43.7933V70.4077C50.4205 69.9953 55.6899 64.4872 55.6899 57.7585V52.9999C55.6899 52.5613 55.3345 52.2068 54.8968 52.2068Z" fill="#0EF5FF"/>
<path d="M43 66.4828C47.8102 66.4828 51.7242 62.5688 51.7242 57.7586V38.7241C51.7242 33.914 47.8102 30 43 30C38.1898 30 34.2759 33.914 34.2759 38.7241V57.7586C34.2759 62.5688 38.1898 66.4828 43 66.4828ZM35.8621 38.7241C35.8621 34.788 39.0646 31.5862 43 31.5862C46.9354 31.5862 50.1379 34.788 50.1379 38.7241V57.7586C50.1379 61.6948 46.9354 64.8965 43 64.8965C39.0646 64.8965 35.8621 61.6948 35.8621 57.7586V38.7241Z" fill="#0EF5FF"/>
</g>
<defs>
<filter id="filter0_d" x="-10" y="0" width="106" height="106" filterUnits="userSpaceOnUse" color-interpolation-filters="sRGB">
<feFlood flood-opacity="0" result="BackgroundImageFix"/>
<feColorMatrix in="SourceAlpha" type="matrix" values="0 0 0 0 0 0 0 0 0 0 0 0 0 0 0 0 0 0 127 0"/>
<feOffset/>
<feGaussianBlur stdDeviation="15"/>
<feColorMatrix type="matrix" values="0 0 0 0 0.054902 0 0 0 0 0.960784 0 0 0 0 1 0 0 0 0.8 0"/>
<feBlend mode="normal" in2="BackgroundImageFix" result="effect1_dropShadow"/>
<feBlend mode="normal" in="SourceGraphic" in2="effect1_dropShadow" result="shape"/>
</filter>
</defs>
</svg>

<svg width="86" height="106" viewBox="0 0 86 106" fill="none" xmlns="http://www.w3.org/2000/svg"><g filter="url(#filter0_d)" fill="#0EF5FF"><path d="M54.897 52.207a.793.793 0 00-.793.793v4.758c0 6.123-4.981 11.104-11.104 11.104-6.123 0-11.103-4.98-11.103-11.103v-4.76a.793.793 0 10-1.586 0v4.76c0 6.729 5.269 12.236 11.896 12.649v4.006h-3.965a.793.793 0 100 1.586h9.517a.793.793 0 100-1.586h-3.966v-4.006c6.627-.413 11.897-5.92 11.897-12.65V53a.793.793 0 00-.793-.793z"/><path d="M43 66.483c4.81 0 8.724-3.914 8.724-8.724V38.724C51.724 33.914 47.81 30 43 30c-4.81 0-8.724 3.914-8.724 8.724V57.76c0 4.81 3.914 8.724 8.724 8.724zm-7.138-27.759c0-3.936 3.203-7.138 7.138-7.138s7.138 3.202 7.138 7.138V57.76c0 3.936-3.203 7.138-7.138 7.138s-7.138-3.202-7.138-7.138V38.724z"/></g><defs><filter id="filter0_d" x="-10" y="0" width="106" height="106" filterUnits="userSpaceOnUse" color-interpolation-filters="sRGB"><feFlood flood-opacity="0" result="BackgroundImageFix"/><feColorMatrix in="SourceAlpha" values="0 0 0 0 0 0 0 0 0 0 0 0 0 0 0 0 0 0 127 0"/><feOffset/><feGaussianBlur stdDeviation="15"/><feColorMatrix values="0 0 0 0 0.054902 0 0 0 0 0.960784 0 0 0 0 1 0 0 0 0.8 0"/><feBlend in2="BackgroundImageFix" result="effect1_dropShadow"/><feBlend in="SourceGraphic" in2="effect1_dropShadow" result="shape"/></filter></defs></svg>
